public/images/wallet/dicounticonforexpired.svg

<svg width="23" height="23" viewBox="0 0 23 23" fill="none" xmlns="http://www.w3.org/2000/svg">
<path fill-rule="evenodd" clip-rule="evenodd" d="M9.37419 2.73516C9.82735 2.31559 10.5038 1.72729 11.3703 1.72729C12.2368 1.72729 12.9132 2.31559 13.3664 2.73516C13.4684 2.82963 13.5597 2.91663 13.6461 2.99905C13.7853 3.13177 13.9121 3.25273 14.0515 3.37388C14.2635 3.55816 14.4322 3.67571 14.5751 3.73855C14.7402 3.80306 14.9578 3.84299 15.2433 3.86563C15.4408 3.88129 15.6327 3.88687 15.8425 3.89297C15.952 3.89615 16.0663 3.89947 16.1888 3.90444C16.8001 3.92922 17.6945 3.98565 18.2983 4.58946C18.9021 5.19326 18.9585 6.08764 18.9833 6.69897C18.9883 6.82143 18.9916 6.93568 18.9948 7.04503C19.001 7.25493 19.0065 7.44701 19.0221 7.64447C19.0448 7.92998 19.0847 8.1476 19.1492 8.31262C19.2121 8.45558 19.3296 8.62427 19.5139 8.83629C19.6351 8.97569 19.7559 9.10245 19.8887 9.24163C19.9711 9.32809 20.0581 9.41935 20.1527 9.52141C20.5722 9.97457 21.1605 10.651 21.1605 11.5175C21.1605 12.384 20.5722 13.0604 20.1527 13.5136C20.0582 13.6156 19.9712 13.7068 19.8889 13.7932C19.7561 13.9323 19.6351 14.0593 19.5139 14.1987C19.3296 14.4107 19.2121 14.5794 19.1492 14.7224C19.0847 14.8874 19.0448 15.105 19.0221 15.3905C19.0065 15.588 19.001 15.7799 18.9948 15.9898C18.9916 16.0991 18.9883 16.2135 18.9833 16.3361C18.9585 16.9473 18.9021 17.8417 18.2983 18.4455C17.6945 19.0493 16.8001 19.1058 16.1888 19.1306C16.0663 19.1355 15.9521 19.1389 15.8427 19.142C15.6329 19.1482 15.4408 19.1537 15.2433 19.1693C14.9578 19.192 14.7402 19.2319 14.5751 19.2964C14.4322 19.3593 14.2635 19.4769 14.0515 19.6611C13.9121 19.7823 13.7854 19.9031 13.6462 20.0358C13.5598 20.1183 13.4684 20.2054 13.3664 20.2999C12.9132 20.7194 12.2368 21.3077 11.3703 21.3077C10.5038 21.3077 9.82735 20.7194 9.37419 20.2999C9.27213 20.2053 9.18087 20.1183 9.09441 20.0359C8.95523 19.9031 8.82847 19.7823 8.68908 19.6611C8.47706 19.4769 8.30837 19.3593 8.1654 19.2964C8.00039 19.2319 7.78276 19.192 7.49725 19.1693C7.29979 19.1537 7.10788 19.1482 6.89799 19.142C6.78863 19.1389 6.67421 19.1355 6.55175 19.1306C5.94042 19.1058 5.04605 19.0493 4.44224 18.4455C3.83844 17.8417 3.78201 16.9473 3.75723 16.3361C3.75226 16.2135 3.74894 16.0992 3.74576 15.9898C3.73965 15.7799 3.73407 15.588 3.71841 15.3905C3.69577 15.105 3.65584 14.8874 3.59133 14.7224C3.5285 14.5794 3.41094 14.4107 3.22666 14.1987C3.10551 14.0593 2.98465 13.9326 2.85193 13.7934C2.76954 13.707 2.68236 13.6156 2.58794 13.5136C2.16838 13.0604 1.58008 12.384 1.58008 11.5175C1.58008 10.651 2.16838 9.97457 2.58794 9.52141C2.68244 9.41935 2.76947 9.32809 2.85193 9.24162C2.98463 9.10245 3.10552 8.97568 3.22666 8.83629C3.41094 8.62428 3.5285 8.45559 3.59133 8.31264C3.65584 8.14761 3.69577 7.92999 3.71841 7.64447C3.73407 7.44701 3.73965 7.2551 3.74576 7.04521C3.74894 6.93581 3.75226 6.82148 3.75723 6.69897C3.78201 6.08764 3.83844 5.19326 4.44224 4.58946C5.04605 3.98565 5.94042 3.92922 6.55175 3.90444C6.67426 3.89947 6.78854 3.89615 6.89794 3.89297C7.10784 3.88688 7.29979 3.88129 7.49725 3.86563C7.78277 3.84299 8.0004 3.80306 8.16542 3.73855C8.30838 3.67571 8.47707 3.55816 8.68908 3.37388C8.82846 3.25274 8.95521 3.13186 9.09438 2.99916C9.18085 2.9167 9.27213 2.82965 9.37419 2.73516ZM14.0276 9.13988C14.2593 8.83091 14.1968 8.39259 13.8878 8.16086C13.5788 7.92913 13.1405 7.99175 12.9087 8.30072L8.71294 13.8951C8.48122 14.2041 8.54384 14.6424 8.85281 14.8741C9.16178 15.1059 9.60013 15.0433 9.83183 14.7343L14.0276 9.13988ZM12.0696 13.6154C12.0696 12.843 12.6958 12.2168 13.4682 12.2168C14.2406 12.2168 14.8668 12.843 14.8668 13.6154C14.8668 14.3878 14.2406 15.014 13.4682 15.014C12.6958 15.014 12.0696 14.3878 12.0696 13.6154ZM9.27239 8.021C8.49996 8.021 7.87378 8.64717 7.87378 9.4196C7.87378 10.192 8.49996 10.8182 9.27239 10.8182C10.0448 10.8182 10.671 10.192 10.671 9.4196C10.671 8.64717 10.0448 8.021 9.27239 8.021Z" fill="#707070"/>
</svg>

<svg width="23" height="23" fill="none" xmlns="http://www.w3.org/2000/svg"><path fill-rule="evenodd" clip-rule="evenodd" d="M9.374 2.735c.453-.42 1.13-1.008 1.996-1.008.867 0 1.543.589 1.996 1.008l.28.264c.14.133.266.254.405.375.213.184.381.302.524.365.165.064.383.104.668.127.198.015.39.02.6.027.109.003.223.006.346.011.611.025 1.506.082 2.11.685.603.604.66 1.499.684 2.11l.012.346c.006.21.011.402.027.6.023.285.063.503.127.668.063.143.18.311.365.523.121.14.242.266.375.406.082.086.17.177.264.28.42.453 1.008 1.129 1.008 1.995 0 .867-.589 1.543-1.008 1.997l-.264.28c-.133.138-.254.265-.375.405-.184.212-.302.38-.365.523-.064.165-.104.383-.127.668-.015.198-.021.39-.027.6l-.012.346c-.024.611-.08 1.506-.685 2.11-.603.603-1.498.66-2.11.685a29.2 29.2 0 0 1-.345.011c-.21.006-.402.012-.6.027-.285.023-.503.063-.668.127-.143.063-.311.18-.523.365-.14.121-.267.242-.406.375-.086.082-.178.17-.28.264-.453.42-1.13 1.008-1.996 1.008-.866 0-1.543-.589-1.996-1.008l-.28-.264c-.139-.133-.266-.254-.405-.375-.212-.184-.38-.302-.524-.365-.165-.064-.382-.104-.668-.127-.197-.015-.39-.02-.599-.027a29.22 29.22 0 0 1-.346-.011c-.612-.025-1.506-.082-2.11-.686-.604-.603-.66-1.498-.685-2.109-.005-.122-.008-.237-.011-.346-.006-.21-.012-.402-.028-.6-.022-.285-.062-.503-.127-.668-.063-.143-.18-.311-.364-.523-.121-.14-.242-.266-.375-.406-.082-.086-.17-.177-.264-.28-.42-.453-1.008-1.129-1.008-1.995 0-.867.588-1.543 1.008-1.997.094-.102.181-.193.264-.28.133-.139.254-.265.375-.405.184-.212.302-.38.364-.523.065-.165.105-.383.127-.669.016-.197.022-.389.028-.599.003-.11.006-.224.011-.346.025-.611.081-1.506.685-2.11.604-.603 1.498-.66 2.11-.685.122-.005.237-.008.346-.011.21-.006.402-.012.6-.027.285-.023.502-.063.667-.127.143-.063.312-.18.524-.365.14-.121.266-.242.405-.375.087-.082.178-.17.28-.264Zm4.654 6.405a.7.7 0 1 0-1.12-.84l-4.195 5.595a.7.7 0 0 0 1.119.84l4.196-5.595Zm-1.958 4.475a1.399 1.399 0 1 1 2.797 0 1.399 1.399 0 0 1-2.797 0ZM9.272 8.021a1.399 1.399 0 1 0 0 2.797 1.399 1.399 0 0 0 0-2.797Z" fill="#707070"/></svg>
